src/animals-nature/animal-bug/1F577.svg

<svg id="emoji" viewBox="0 0 72 72" xmlns="http://www.w3.org/2000/svg">
  <g id="grid">
    <path fill="#b3b3b3" d="M68,4V68H4V4H68m4-4H0V72H72V0Z"/>
    <path fill="none" stroke="#00a5ff" stroke-miterlimit="10" stroke-width="0.1" d="M12.923,10.9583H59.0769A1.9231,1.9231,0,0,1,61,12.8814V59.0352a1.9231,1.9231,0,0,1-1.9231,1.9231H12.9231A1.9231,1.9231,0,0,1,11,59.0352V12.8813A1.923,1.923,0,0,1,12.923,10.9583Z"/>
    <rect x="16" y="4" rx="2.2537" width="40" height="64" fill="none" stroke="#00a5ff" stroke-miterlimit="10" stroke-width="0.1"/>
    <rect x="16" y="4" rx="2.2537" width="40" height="64" transform="translate(72) rotate(90)" fill="none" stroke="#00a5ff" stroke-miterlimit="10" stroke-width="0.1"/>
    <circle cx="36" cy="36" r="29" fill="none" stroke="#00a5ff" stroke-miterlimit="10" stroke-width="0.1"/>
  </g>
  <g id="color">
    <ellipse cx="36.5" cy="32.5" rx="6.5" ry="8.5" fill="#9B9B9A" stroke="none"/>
    <circle cx="36.5" cy="44.5" r="3.5" fill="#9B9B9A" stroke="none"/>
  </g>
  <g id="hair"/>
  <g id="skin"/>
  <g id="skin-shadow"/>
  <g id="line">
    <path fill="none" stroke="#000000" stroke-linecap="round" stroke-linejoin="round" stroke-miterlimit="10" stroke-width="2" d="M29,16c0,0-11,22,7,25"/>
    <path fill="none" stroke="#000000" stroke-linecap="round" stroke-linejoin="round" stroke-miterlimit="10" stroke-width="2" d="M37,41c20-3,8-25,8-25"/>
    <path fill="none" stroke="#000000" stroke-linecap="round" stroke-linejoin="round" stroke-miterlimit="10" stroke-width="2" d="M55.6667,25.8333C55.6667,25.8333,53,42.5,38,40.75"/>
    <path fill="none" stroke="#000000" stroke-linecap="round" stroke-linejoin="round" stroke-miterlimit="10" stroke-width="2" d="M17.4167,25.9167c0,0,3.9167,16.0833,17.75,15.0833"/>
    <path fill="none" stroke="#000000" stroke-linecap="round" stroke-linejoin="round" stroke-miterlimit="10" stroke-width="2" d="M34.5,41c0,0-9.5,7.28-4.5,14"/>
    <path fill="none" stroke="#000000" stroke-linecap="round" stroke-linejoin="round" stroke-miterlimit="10" stroke-width="2" d="M33,40.4167C33,40.4167,19,46,23,57"/>
    <path fill="none" stroke="#000000" stroke-linecap="round" stroke-linejoin="round" stroke-miterlimit="10" stroke-width="2" d="M38.75,40.6667C38.75,40.6667,49,47,44,55"/>
    <path fill="none" stroke="#000000" stroke-linecap="round" stroke-linejoin="round" stroke-miterlimit="10" stroke-width="2" d="M41.0833,40.5833c0,0,14.0833,5.9167,9.5,17.1667"/>
    <ellipse cx="36.5" cy="32.5" rx="6.5" ry="8.5" fill="none" stroke="#000000" stroke-linecap="round" stroke-linejoin="round" stroke-miterlimit="10" stroke-width="2"/>
    <circle cx="36.5" cy="44.5" r="3.5" fill="none" stroke="#000000" stroke-linecap="round" stroke-linejoin="round" stroke-miterlimit="10" stroke-width="2"/>
  </g>
</svg>

<svg viewBox="0 0 72 72" xmlns="http://www.w3.org/2000/svg"><path fill="#b3b3b3" d="M68 4v64H4V4h64m4-4H0v72h72V0z"/><path fill="none" stroke="#00a5ff" stroke-miterlimit="10" stroke-width=".1" d="M12.923 10.958h46.154A1.923 1.923 0 0161 12.881v46.154a1.923 1.923 0 01-1.923 1.923H12.923A1.923 1.923 0 0111 59.035V12.881a1.923 1.923 0 011.923-1.923z"/><rect x="16" y="4" rx="2.254" width="40" height="64" fill="none" stroke="#00a5ff" stroke-miterlimit="10" stroke-width=".1"/><rect x="16" y="4" rx="2.254" width="40" height="64" transform="rotate(90 36 36)" fill="none" stroke="#00a5ff" stroke-miterlimit="10" stroke-width=".1"/><circle cx="36" cy="36" r="29" fill="none" stroke="#00a5ff" stroke-miterlimit="10" stroke-width=".1"/><g stroke-linecap="round" stroke-miterlimit="10" stroke-width="6" stroke="#fff" fill="none" stroke-linejoin="round"><path d="M29 16s-11 22 7 25m1 0c20-3 8-25 8-25m10.667 9.833S53 42.5 38 40.75M17.417 25.917S21.333 42 35.167 41m-.667 0S25 48.28 30 55m3-14.583S19 46 23 57m15.75-16.333S49 47 44 55m-2.917-14.417s14.084 5.917 9.5 17.167"/><ellipse cx="36.5" cy="32.5" rx="6.5" ry="8.5"/><circle cx="36.5" cy="44.5" r="3.5"/></g><g fill="#9B9B9A"><ellipse cx="36.5" cy="32.5" rx="6.5" ry="8.5"/><circle cx="36.5" cy="44.5" r="3.5"/></g><g fill="none" stroke="#000" stroke-linecap="round" stroke-linejoin="round" stroke-miterlimit="10" stroke-width="2"><path d="M29 16s-11 22 7 25m1 0c20-3 8-25 8-25m10.667 9.833S53 42.5 38 40.75M17.417 25.917S21.333 42 35.167 41m-.667 0S25 48.28 30 55m3-14.583S19 46 23 57m15.75-16.333S49 47 44 55m-2.917-14.417s14.084 5.917 9.5 17.167"/><ellipse cx="36.5" cy="32.5" rx="6.5" ry="8.5"/><circle cx="36.5" cy="44.5" r="3.5"/></g></svg>
